src/icons/settings.svg

<svg viewBox="0 0 18 18" xmlns="http://www.w3.org/2000/svg"><path d="M16.135 7.784a2 2 0 0 1-1.23-2.969c.322-.536.225-.998-.094-1.316l-.31-.31c-.318-.318-.78-.415-1.316-.094a2 2 0 0 1-2.969-1.23C10.065 1.258 9.669 1 9.219 1h-.438c-.45 0-.845.258-.997.865a2 2 0 0 1-2.969 1.23c-.536-.322-.999-.225-1.317.093l-.31.31c-.318.318-.415.781-.093 1.317a2 2 0 0 1-1.23 2.969C1.26 7.935 1 8.33 1 8.781v.438c0 .45.258.845.865.997a2 2 0 0 1 1.23 2.969c-.322.536-.225.998.094 1.316l.31.31c.319.319.782.415 1.316.094a2 2 0 0 1 2.969 1.23c.151.607.547.865.997.865h.438c.45 0 .845-.258.997-.865a2 2 0 0 1 2.969-1.23c.535.321.997.225 1.316-.094l.31-.31c.318-.318.415-.781.094-1.316a2 2 0 0 1 1.23-2.969c.607-.151.865-.547.865-.997v-.438c0-.451-.26-.846-.865-.997zM9 12a3 3 0 1 1 0-6 3 3 0 0 1 0 6z"/></svg>

<svg width="18px" height="18px" viewBox="0 0 18 18" xmlns="http://www.w3.org/2000/svg">
    <path d="M16.135,7.784 C14.832,7.458 14.214,5.966 14.905,4.815 C15.227,4.279 15.13,3.817 14.811,3.499 L14.501,3.189 C14.183,2.871 13.721,2.774 13.185,3.095 C12.033,3.786 10.541,3.168 10.216,1.865 C10.065,1.258 9.669,1 9.219,1 L8.781,1 C8.331,1 7.936,1.258 7.784,1.865 C7.458,3.168 5.966,3.786 4.815,3.095 C4.279,2.773 3.816,2.87 3.498,3.188 L3.188,3.498 C2.87,3.816 2.773,4.279 3.095,4.815 C3.786,5.967 3.168,7.459 1.865,7.784 C1.26,7.935 1,8.33 1,8.781 L1,9.219 C1,9.669 1.258,10.064 1.865,10.216 C3.168,10.542 3.786,12.034 3.095,13.185 C2.773,13.721 2.87,14.183 3.189,14.501 L3.499,14.811 C3.818,15.13 4.281,15.226 4.815,14.905 C5.967,14.214 7.459,14.832 7.784,16.135 C7.935,16.742 8.331,17 8.781,17 L9.219,17 C9.669,17 10.064,16.742 10.216,16.135 C10.542,14.832 12.034,14.214 13.185,14.905 C13.72,15.226 14.182,15.13 14.501,14.811 L14.811,14.501 C15.129,14.183 15.226,13.72 14.905,13.185 C14.214,12.033 14.832,10.541 16.135,10.216 C16.742,10.065 17,9.669 17,9.219 L17,8.781 C17,8.33 16.74,7.935 16.135,7.784 L16.135,7.784 Z M9,12 C7.343,12 6,10.657 6,9 C6,7.343 7.343,6 9,6 C10.657,6 12,7.343 12,9 C12,10.657 10.657,12 9,12 L9,12 Z"></path>
</svg>
